src/assets/icon/referral.svg

<svg width="100" height="100" viewBox="0 0 100 100" fill="none" xmlns="http://www.w3.org/2000/svg">
<g id="icon-referral">
<g id="Group 289">
<path id="Union" fill-rule="evenodd" clip-rule="evenodd" d="M34.0005 0C14.7339 0.114739 15.6395 15.0734 16.3012 26.0025C16.4127 27.8437 16.5172 29.5706 16.5172 31.0929C16.5172 41.6508 34.0005 46.5 34.0005 46.5C34.0005 46.5 51.4837 41.6508 51.4837 31.0929C51.4837 29.5706 51.5882 27.8437 51.6997 26.0025C52.3614 15.0734 53.267 0.114739 34.0005 0Z" fill="#605F5E"/>
<path id="arrow_forward_ios" d="M75.7757 85L70 79.0394L88.4486 60L70 40.9606L75.7757 35L100 60L75.7757 85Z" fill="#605F5E"/>
<rect id="Rectangle 141" width="18.1753" height="18.1753" transform="matrix(0.692552 0.721368 -0.692552 0.721368 62.5874 46.665)" fill="#605F5E"/>
<path id="Subtract" fill-rule="evenodd" clip-rule="evenodd" d="M48.455 55.6144C45.2395 53.5822 43.1716 50.8482 44.0005 46C44.0005 46 43.0368 48.0112 39.5458 49.873C37.2084 51.1197 34.0224 51.994 34.0006 52C33.9773 51.9936 30.7923 51.1194 28.4555 49.873C24.9644 48.0112 24.0007 46 24.0007 46C25.2872 53.5242 19.5963 55.9562 13.467 58.5757C11.4013 59.4585 9.28574 60.3625 7.37072 61.49C-0.226533 65.9629 0.000724151 72 0.000724151 72V87C8.12633 95.0858 33.9101 99.9828 34.0005 100L34.0006 100L34.0007 100V100C34.0911 99.9828 59.8749 95.0858 68.0005 87V73.0197L62.5874 78.658L44.4597 59.776L48.455 55.6144Z" fill="#605F5E"/>
</g>
</g>
</svg>

<svg xmlns="http://www.w3.org/2000/svg" width="100" height="100" fill="#605f5e" xmlns:v="https://vecta.io/nano"><path fill-rule="evenodd" d="M34.001 0C14.734.115 15.64 15.073 16.301 26.003c.111 1.841.216 3.568.216 5.09 0 10.558 17.483 15.407 17.483 15.407s17.483-4.849 17.483-15.407c0-1.522.105-3.249.216-5.09C52.361 15.073 53.267.115 34.001 0z"/><path d="M75.776 85L70 79.039 88.449 60 70 40.961 75.776 35 100 60 75.776 85zM62.587 46.665l12.587 13.111-12.587 13.111L50 59.776z"/><path fill-rule="evenodd" d="M48.455 55.614c-3.215-2.032-5.283-4.766-4.454-9.614 0 0-.964 2.011-4.455 3.873-2.337 1.247-5.523 2.121-5.545 2.127-.023-.006-3.208-.881-5.545-2.127C24.964 48.011 24.001 46 24.001 46c1.287 7.524-4.404 9.956-10.534 12.576-2.066.883-4.181 1.787-6.096 2.914C-.227 65.963.001 72 .001 72v15c8.126 8.086 33.909 12.983 34 13h0 0 0c.09-.017 25.874-4.914 34-13V73.02l-5.413 5.638L44.46 59.776l3.995-4.162z"/></svg>
